public/stickers/summer_of_making.svg

<svg width="83" height="83" viewBox="0 0 83 83" fill="none" xmlns="http://www.w3.org/2000/svg">
<g clip-path="url(#clip0)">
<path fill-rule="evenodd" clip-rule="evenodd" d="M36.8481 9.79525H46.1551C46.9351 9.79525 47.2551 9.24225 46.8631 8.56725L42.2111 0.50625C41.8201 -0.16875 41.1841 -0.16875 40.7941 0.50625L36.1401 8.56725C35.7491 9.24225 36.0661 9.79525 36.8481 9.79525ZM41.5016 13.5021C26.065 13.5021 13.5041 26.062 13.5041 41.4996C13.5041 56.9363 26.065 69.4972 41.5016 69.4972C56.9383 69.4972 69.4992 56.9363 69.4992 41.4996C69.4992 26.062 56.9373 13.5021 41.5016 13.5021ZM29.6785 11.7148L21.6175 16.3688C20.9415 16.7588 20.3895 16.4398 20.3885 15.6608V6.35177C20.3885 5.57277 20.9415 5.25377 21.6175 5.64377L29.6785 10.2978C30.3535 10.6868 30.3535 11.3258 29.6785 11.7148ZM10.2978 29.6775C10.6888 30.3515 11.3258 30.3515 11.7148 29.6775L16.3698 21.6155C16.7588 20.9405 16.4408 20.3885 15.6608 20.3885H6.35377C5.57477 20.3885 5.25577 20.9405 5.64577 21.6155L10.2978 29.6775ZM9.79525 36.8461V46.1531C9.79525 46.9331 9.24125 47.2521 8.56725 46.8611L0.50625 42.2071C-0.16875 41.8181 -0.16875 41.1811 0.50625 40.7911L8.56725 36.1371C9.24125 35.7481 9.79525 36.0661 9.79525 36.8461ZM11.7148 53.3216C11.3258 52.6466 10.6888 52.6466 10.2978 53.3216L5.64477 61.3836C5.25477 62.0576 5.57377 62.6106 6.35277 62.6106H15.6618C16.4408 62.6106 16.7608 62.0576 16.3708 61.3836L11.7148 53.3216ZM21.6165 66.6304L29.6775 71.2845C30.3535 71.6735 30.3535 72.3115 29.6775 72.7035L21.6165 77.3565C20.9415 77.7465 20.3885 77.4275 20.3885 76.6475V67.3395C20.3885 66.5604 20.9415 66.2414 21.6165 66.6304ZM46.1531 73.2059H36.8461C36.0651 73.2059 35.7471 73.7579 36.1371 74.4329L40.7911 82.4939C41.1811 83.1699 41.8171 83.1699 42.2081 82.4939L46.8601 74.4329C47.2531 73.7579 46.9341 73.2059 46.1531 73.2059ZM53.3216 71.2854L61.3836 66.6314C62.0596 66.2414 62.6106 66.5604 62.6116 67.3384V76.6474C62.6116 77.4264 62.0596 77.7464 61.3836 77.3564L53.3216 72.7024C52.6476 72.3114 52.6476 71.6744 53.3216 71.2854ZM72.7025 53.3226C72.3124 52.6476 71.6745 52.6476 71.2855 53.3226L66.6305 61.3836C66.2415 62.0596 66.5615 62.6116 67.3395 62.6116H76.6484C77.4274 62.6116 77.7474 62.0596 77.3574 61.3836L72.7025 53.3226ZM74.4329 36.1391L82.4949 40.7921C83.1698 41.1821 83.1698 41.8191 82.4949 42.2091L74.4329 46.8631C73.7579 47.2521 73.2059 46.9331 73.2059 46.1541V36.8461C73.2059 36.0671 73.7579 35.7481 74.4329 36.1391ZM71.2864 29.6775C71.6754 30.3535 72.3134 30.3535 72.7034 29.6775L77.3565 21.6165C77.7475 20.9415 77.4265 20.3885 76.6485 20.3885H67.3394C66.5604 20.3885 66.2414 20.9415 66.6304 21.6165L71.2864 29.6775ZM61.3836 16.3698L53.3236 11.7158C52.6486 11.3258 52.6486 10.6878 53.3236 10.2978L61.3836 5.64477C62.0606 5.25477 62.6126 5.57377 62.6126 6.35277V15.6608C62.6126 16.4398 62.0606 16.7588 61.3836 16.3698Z" fill="url(#paint0_radial)"/>
<g filter="url(#filter0_d)">
<path d="M39.2273 23.2979C39.2273 23.1425 39.087 23.0247 38.9339 23.0517L31.2066 24.4143C31.0871 24.4354 31 24.5392 31 24.6605L31 58.75C31 58.8881 31.1119 59 31.25 59H38.9773C39.1154 59 39.2273 58.8881 39.2273 58.75V46.3851C39.2273 42.3246 41.3736 39.8092 43.1622 39.8092C44.7719 39.8092 45.2369 41.4262 45.2369 43.8697V58.75C45.2369 58.8881 45.3488 59 45.4869 59H53.25C53.3881 59 53.5 58.8881 53.5 58.75V42.6839C53.5 37.1502 51.4253 33.5927 46.0238 33.5927C43.6823 33.5927 41.4016 34.2036 39.6583 35.5661C39.4875 35.6996 39.2273 35.5821 39.2273 35.3654V23.2979Z" fill="white"/>
</g>
</g>
<defs>
<filter id="filter0_d" x="29" y="21.0479" width="26.5" height="39.9521" filterUnits="userSpaceOnUse" color-interpolation-filters="sRGB">
<feFlood flood-opacity="0" result="BackgroundImageFix"/>
<feColorMatrix in="SourceAlpha" type="matrix" values="0 0 0 0 0 0 0 0 0 0 0 0 0 0 0 0 0 0 127 0"/>
<feOffset/>
<feGaussianBlur stdDeviation="1"/>
<feColorMatrix type="matrix" values="0 0 0 0 0 0 0 0 0 0 0 0 0 0 0 0 0 0 0.05 0"/>
<feBlend mode="normal" in2="BackgroundImageFix" result="effect1_dropShadow"/>
<feBlend mode="normal" in="SourceGraphic" in2="effect1_dropShadow" result="shape"/>
</filter>
<radialGradient id="paint0_radial" cx="0" cy="0" r="1" gradientUnits="userSpaceOnUse" gradientTransform="translate(41.9968 13.499) rotate(90) scale(59.9954 53.1474)">
<stop offset="0.354167" stop-color="#F1C40F"/>
<stop offset="1" stop-color="#FF8C37"/>
</radialGradient>
<clipPath id="clip0">
<rect width="83.0003" height="83" fill="white"/>
</clipPath>
</defs>
</svg>

<svg width="83" height="83" fill="none" xmlns="http://www.w3.org/2000/svg"><g clip-path="url(#a)"><path fill-rule="evenodd" clip-rule="evenodd" d="M36.848 9.795h9.307c.78 0 1.1-.553.708-1.228L42.211.507c-.39-.676-1.027-.676-1.417 0l-4.654 8.06c-.39.675-.074 1.228.708 1.228Zm4.654 3.707c-15.437 0-27.998 12.56-27.998 27.998 0 15.436 12.561 27.997 27.998 27.997 15.436 0 27.997-12.56 27.997-27.997 0-15.438-12.562-27.998-27.997-27.998Zm-11.824-1.787-8.06 4.654c-.676.39-1.228.07-1.23-.708V6.35c0-.778.553-1.097 1.23-.707l8.06 4.654c.675.389.675 1.028 0 1.417Zm-19.38 17.962c.39.675 1.028.675 1.417 0l4.655-8.061c.389-.675.07-1.227-.71-1.227H6.355c-.78 0-1.098.552-.708 1.227l4.652 8.061Zm-.503 7.17v9.306c0 .78-.554 1.1-1.228.708l-8.06-4.654c-.676-.389-.676-1.026 0-1.416l8.06-4.654c.674-.389 1.228-.07 1.228.71Zm1.92 16.475c-.39-.675-1.026-.675-1.417 0l-4.653 8.062c-.39.674-.071 1.227.708 1.227h9.309c.779 0 1.099-.553.709-1.227l-4.656-8.062Zm9.901 13.308 8.061 4.654c.677.39.677 1.027 0 1.42l-8.06 4.653c-.675.39-1.229.07-1.229-.71V67.34c0-.779.553-1.098 1.228-.709Zm24.537 6.576h-9.307c-.78 0-1.099.552-.709 1.227l4.654 8.06c.39.677 1.026.677 1.417 0l4.652-8.06c.393-.675.074-1.227-.707-1.227Zm7.169-1.92 8.062-4.655c.676-.39 1.227-.07 1.228.707v9.31c0 .778-.552 1.098-1.228.708l-8.062-4.654c-.674-.39-.674-1.028 0-1.417Zm19.38-17.963c-.39-.675-1.028-.675-1.416 0l-4.656 8.06c-.388.677-.069 1.229.71 1.229h9.308c.78 0 1.1-.552.71-1.228l-4.656-8.061Zm1.73-17.184 8.063 4.653c.675.39.675 1.027 0 1.417l-8.062 4.654c-.675.39-1.227.07-1.227-.709v-9.308c0-.779.552-1.098 1.227-.707Zm-3.146-6.462c.39.677 1.027.677 1.417 0l4.653-8.06c.392-.675.07-1.229-.707-1.229h-9.31c-.779 0-1.098.553-.709 1.228l4.656 8.061ZM61.384 16.37l-8.06-4.654c-.675-.39-.675-1.028 0-1.418l8.06-4.653c.677-.39 1.229-.071 1.229.708v9.308c0 .779-.552 1.098-1.23.709Z" fill="url(#b)"/><g filter="url(#c)"><path d="M39.227 23.298a.25.25 0 0 0-.293-.246l-7.727 1.362a.25.25 0 0 0-.207.246v34.09c0 .138.112.25.25.25h7.727a.25.25 0 0 0 .25-.25V46.385c0-4.06 2.147-6.576 3.935-6.576 1.61 0 2.075 1.617 2.075 4.06V58.75c0 .138.112.25.25.25h7.763a.25.25 0 0 0 .25-.25V42.684c0-5.534-2.075-9.091-7.476-9.091-2.342 0-4.622.61-6.366 1.973-.17.134-.43.016-.43-.2V23.297Z" fill="#fff"/></g></g><defs><radialGradient id="b" cx="0" cy="0" r="1" gradientUnits="userSpaceOnUse" gradientTransform="matrix(0 59.9954 -53.1474 0 41.997 13.499)"><stop offset=".354" stop-color="#F1C40F"/><stop offset="1" stop-color="#FF8C37"/></radialGradient><clipPath id="a"><path fill="#fff" d="M0 0h83v83H0z"/></clipPath><filter id="c" x="29" y="21.048" width="26.5" height="39.952" filterUnits="userSpaceOnUse" color-interpolation-filters="sRGB"><feFlood flood-opacity="0" result="BackgroundImageFix"/><feColorMatrix in="SourceAlpha" values="0 0 0 0 0 0 0 0 0 0 0 0 0 0 0 0 0 0 127 0"/><feOffset/><feGaussianBlur stdDeviation="1"/><feColorMatrix values="0 0 0 0 0 0 0 0 0 0 0 0 0 0 0 0 0 0 0.05 0"/><feBlend in2="BackgroundImageFix" result="effect1_dropShadow"/><feBlend in="SourceGraphic" in2="effect1_dropShadow" result="shape"/></filter></defs></svg>
